Numix-Light/16/status/indicator-keyboard-Es-6.svg

<?xml version="1.0" encoding="UTF-8" standalone="no"?>
<svg
   xmlns:dc="http://purl.org/dc/elements/1.1/"
   xmlns:cc="http://creativecommons.org/ns#"
   xmlns:rdf="http://www.w3.org/1999/02/22-rdf-syntax-ns#"
   xmlns:svg="http://www.w3.org/2000/svg"
   xmlns="http://www.w3.org/2000/svg"
   xmlns:sodipodi="http://sodipodi.sourceforge.net/DTD/sodipodi-0.dtd"
   xmlns:inkscape="http://www.inkscape.org/namespaces/inkscape"
   viewBox="0 0 16 16"
   id="svg2"
   version="1.1"
   inkscape:version="0.91 r13725"
   sodipodi:docname="indicator-keyboard-Es-6.svg">
  <metadata
     id="metadata14">
    <rdf:RDF>
      <cc:Work
         rdf:about="">
        <dc:format>image/svg+xml</dc:format>
        <dc:type
           rdf:resource="http://purl.org/dc/dcmitype/StillImage" />
      </cc:Work>
    </rdf:RDF>
  </metadata>
  <defs
     id="defs12" />
  <sodipodi:namedview
     pagecolor="#ffffff"
     bordercolor="#666666"
     borderopacity="1"
     objecttolerance="10"
     gridtolerance="10"
     guidetolerance="10"
     inkscape:pageopacity="0"
     inkscape:pageshadow="2"
     inkscape:window-width="459"
     inkscape:window-height="369"
     id="namedview10"
     showgrid="false"
     inkscape:zoom="14.75"
     inkscape:cx="8"
     inkscape:cy="8"
     inkscape:window-x="65"
     inkscape:window-y="24"
     inkscape:window-maximized="0"
     inkscape:current-layer="svg2" />
  <path
     style="fill:#353535;fill-opacity:1"
     d="M 1.5996094 0 C 0.71320937 2.9605947e-16 0 0.71320937 0 1.5996094 L 0 14.400391 C 2.9605947e-16 15.286791 0.71320937 16 1.5996094 16 L 14.400391 16 C 15.286791 16 16 15.286791 16 14.400391 L 16 1.5996094 C 16 0.71320937 15.286791 0 14.400391 0 L 1.5996094 0 z M 2.5097656 4.859375 L 6.109375 4.859375 L 6.109375 5.390625 L 3.1210938 5.390625 L 3.1210938 7.5585938 L 5.7851562 7.5585938 L 5.7851562 8.0800781 L 3.1210938 8.0800781 L 3.1210938 10.564453 L 6.34375 10.564453 L 6.34375 11.095703 L 2.5097656 11.095703 L 2.5097656 4.859375 z M 8.7265625 6.3359375 C 9.0445625 6.3359375 9.3057656 6.3620156 9.5097656 6.4160156 C 9.7197656 6.4700156 9.8652188 6.5185469 9.9492188 6.5605469 L 9.8144531 7.0820312 C 9.7424531 7.0460313 9.6193125 6.9975 9.4453125 6.9375 C 9.2773125 6.8775 9.0292188 6.8476563 8.6992188 6.8476562 C 8.5672187 6.8476562 8.4403125 6.8625781 8.3203125 6.8925781 C 8.2063125 6.9165781 8.105625 6.9595312 8.015625 7.0195312 C 7.925625 7.0735313 7.8528281 7.144375 7.7988281 7.234375 C 7.7448281 7.318375 7.71875 7.4247812 7.71875 7.5507812 C 7.71875 7.6767813 7.7430156 7.7830469 7.7910156 7.8730469 C 7.8390156 7.9630469 7.9080469 8.0451875 7.9980469 8.1171875 C 8.0940469 8.1831875 8.2078437 8.2466406 8.3398438 8.3066406 C 8.4778438 8.3666406 8.6326406 8.4319062 8.8066406 8.5039062 C 8.9866406 8.5759062 9.1583125 8.6505156 9.3203125 8.7285156 C 9.4883125 8.8005156 9.6357187 8.8900469 9.7617188 8.9980469 C 9.8877187 9.1000469 9.9884063 9.2269531 10.066406 9.3769531 C 10.144406 9.5209531 10.183594 9.7037812 10.183594 9.9257812 C 10.183594 10.345781 10.025031 10.664859 9.7070312 10.880859 C 9.3950312 11.096859 8.9659219 11.203125 8.4199219 11.203125 C 8.0119219 11.203125 7.700375 11.167703 7.484375 11.095703 C 7.268375 11.029703 7.1247344 10.979359 7.0527344 10.943359 L 7.2050781 10.412109 C 7.2230781 10.424109 7.2622656 10.444609 7.3222656 10.474609 C 7.3822656 10.498609 7.4624531 10.528453 7.5644531 10.564453 C 7.6664531 10.594453 7.7877812 10.622484 7.9257812 10.646484 C 8.0697812 10.670484 8.2339219 10.681641 8.4199219 10.681641 C 8.7559219 10.681641 9.0320469 10.627531 9.2480469 10.519531 C 9.4700469 10.405531 9.5820313 10.217125 9.5820312 9.953125 C 9.5820312 9.827125 9.5595781 9.7189063 9.5175781 9.6289062 C 9.4815781 9.5389062 9.418125 9.4587188 9.328125 9.3867188 C 9.238125 9.3147187 9.11875 9.2456875 8.96875 9.1796875 C 8.82475 9.1136875 8.6456875 9.0353125 8.4296875 8.9453125 C 8.2556875 8.8733125 8.0895937 8.8005156 7.9335938 8.7285156 C 7.7775937 8.6505156 7.6395313 8.56475 7.5195312 8.46875 C 7.3995313 8.36675 7.3044219 8.2454219 7.2324219 8.1074219 C 7.1604219 7.9694219 7.125 7.8015156 7.125 7.6035156 C 7.125 7.2255156 7.264875 6.9195469 7.546875 6.6855469 C 7.834875 6.4515469 8.2285625 6.3359375 8.7265625 6.3359375 z M 13.220703 8.8242188 L 13.244141 9.1464844 C 13.006241 9.1620844 12.786784 9.1993125 12.583984 9.2578125 C 12.385084 9.3124125 12.206781 9.4005844 12.050781 9.5214844 C 11.894781 9.6384843 11.763503 9.7893625 11.658203 9.9765625 C 11.552903 10.163763 11.482359 10.394969 11.443359 10.667969 C 11.548659 10.613369 11.674066 10.566344 11.822266 10.527344 C 11.970466 10.484444 12.129175 10.462891 12.296875 10.462891 C 12.515275 10.462891 12.699463 10.498159 12.851562 10.568359 C 13.003663 10.634659 13.127103 10.722838 13.220703 10.835938 C 13.314303 10.949038 13.382881 11.080316 13.425781 11.228516 C 13.468681 11.376716 13.490234 11.533466 13.490234 11.697266 C 13.490234 11.849366 13.466722 12.000244 13.419922 12.152344 C 13.373122 12.304444 13.298666 12.443559 13.197266 12.568359 C 13.099766 12.689259 12.974366 12.789187 12.822266 12.867188 C 12.674066 12.945188 12.497716 12.984375 12.291016 12.984375 C 11.865916 12.984375 11.542612 12.835463 11.320312 12.539062 C 11.101912 12.238762 10.992188 11.821409 10.992188 11.287109 C 10.992188 10.495409 11.182247 9.8958281 11.560547 9.4863281 C 11.942747 9.0768281 12.495303 8.8554188 13.220703 8.8242188 z M 12.261719 10.794922 C 12.082319 10.794922 11.923609 10.816475 11.787109 10.859375 C 11.654509 10.898375 11.531063 10.9454 11.414062 11 C 11.406263 11.0663 11.402344 11.119203 11.402344 11.158203 L 11.402344 11.292969 C 11.402344 11.476269 11.4141 11.650653 11.4375 11.814453 C 11.4648 11.978253 11.509872 12.121294 11.576172 12.246094 C 11.646372 12.370894 11.738462 12.470822 11.851562 12.544922 C 11.964663 12.615122 12.109656 12.650391 12.285156 12.650391 C 12.429456 12.650391 12.552897 12.624919 12.654297 12.574219 C 12.755697 12.519619 12.836037 12.449081 12.898438 12.363281 C 12.960838 12.277481 13.005903 12.177553 13.033203 12.064453 C 13.064403 11.951353 13.080078 11.833784 13.080078 11.708984 C 13.080078 11.396984 13.009541 11.165778 12.869141 11.017578 C 12.732641 10.869378 12.530819 10.794922 12.261719 10.794922 z "
     id="path4" />
</svg>

<svg xmlns="http://www.w3.org/2000/svg" viewBox="0 0 16 16">
 <path d="m 1.6 0 c -0.886 0 -1.6 0.713 -1.6 1.6 l 0 12.801 c 0 0.886 0.713 1.6 1.6 1.6 l 12.801 0 c 0.886 0 1.6 -0.713 1.6 -1.6 l 0 -12.801 c 0 -0.886 -0.713 -1.6 -1.6 -1.6 l -12.801 0 z m 0.91 4.859 l 3.6 0 l 0 0.531 l -2.988 0 l 0 2.168 l 2.664 0 l 0 0.521 l -2.664 0 l 0 2.484 l 3.223 0 l 0 0.531 l -3.834 0 l 0 -6.236 z m 6.217 1.477 c 0.318 0 0.579 0.026 0.783 0.08 c 0.21 0.054 0.355 0.103 0.439 0.145 l -0.135 0.521 c -0.072 -0.036 -0.195 -0.085 -0.369 -0.145 c -0.168 -0.06 -0.416 -0.09 -0.746 -0.09 c -0.132 0 -0.259 0.015 -0.379 0.045 c -0.114 0.024 -0.215 0.067 -0.305 0.127 c -0.09 0.054 -0.163 0.125 -0.217 0.215 c -0.054 0.084 -0.08 0.19 -0.08 0.316 c 0 0.126 0.024 0.232 0.072 0.322 c 0.048 0.09 0.117 0.172 0.207 0.244 c 0.096 0.066 0.21 0.129 0.342 0.189 c 0.138 0.06 0.293 0.125 0.467 0.197 c 0.18 0.072 0.352 0.147 0.514 0.225 c 0.168 0.072 0.315 0.162 0.441 0.27 c 0.126 0.102 0.227 0.229 0.305 0.379 c 0.078 0.144 0.117 0.327 0.117 0.549 c 0 0.42 -0.159 0.739 -0.477 0.955 c -0.312 0.216 -0.741 0.322 -1.287 0.322 c -0.408 0 -0.72 -0.035 -0.936 -0.107 c -0.216 -0.066 -0.36 -0.116 -0.432 -0.152 l 0.152 -0.531 c 0.018 0.012 0.057 0.033 0.117 0.063 c 0.06 0.024 0.14 0.054 0.242 0.09 c 0.102 0.03 0.223 0.058 0.361 0.082 c 0.144 0.024 0.308 0.035 0.494 0.035 c 0.336 0 0.612 -0.054 0.828 -0.162 c 0.222 -0.114 0.334 -0.302 0.334 -0.566 c 0 -0.126 -0.022 -0.234 -0.064 -0.324 c -0.036 -0.09 -0.099 -0.17 -0.189 -0.242 c -0.09 -0.072 -0.209 -0.141 -0.359 -0.207 c -0.144 -0.066 -0.323 -0.144 -0.539 -0.234 c -0.174 -0.072 -0.34 -0.145 -0.496 -0.217 c -0.156 -0.078 -0.294 -0.164 -0.414 -0.26 c -0.12 -0.102 -0.215 -0.223 -0.287 -0.361 c -0.072 -0.138 -0.107 -0.306 -0.107 -0.504 c 0 -0.378 0.14 -0.684 0.422 -0.918 c 0.288 -0.234 0.682 -0.35 1.18 -0.35 z m 4.494 2.488 l 0.023 0.322 c -0.238 0.016 -0.457 0.053 -0.66 0.111 c -0.199 0.055 -0.377 0.143 -0.533 0.264 c -0.156 0.117 -0.287 0.268 -0.393 0.455 c -0.105 0.187 -0.176 0.418 -0.215 0.691 c 0.105 -0.055 0.231 -0.102 0.379 -0.141 c 0.148 -0.043 0.307 -0.064 0.475 -0.064 c 0.218 0 0.403 0.035 0.555 0.105 c 0.152 0.066 0.276 0.154 0.369 0.268 c 0.094 0.113 0.162 0.244 0.205 0.393 c 0.043 0.148 0.064 0.305 0.064 0.469 c 0 0.152 -0.024 0.303 -0.07 0.455 c -0.047 0.152 -0.121 0.291 -0.223 0.416 c -0.098 0.121 -0.223 0.221 -0.375 0.299 c -0.148 0.078 -0.325 0.117 -0.531 0.117 c -0.425 0 -0.748 -0.149 -0.971 -0.445 c -0.218 -0.3 -0.328 -0.718 -0.328 -1.252 c 0 -0.792 0.19 -1.391 0.568 -1.801 c 0.382 -0.409 0.935 -0.631 1.66 -0.662 z m -0.959 1.971 c -0.179 0 -0.338 0.022 -0.475 0.064 c -0.133 0.039 -0.256 0.086 -0.373 0.141 c -0.008 0.066 -0.012 0.119 -0.012 0.158 l 0 0.135 c 0 0.183 0.012 0.358 0.035 0.521 c 0.027 0.164 0.072 0.307 0.139 0.432 c 0.07 0.125 0.162 0.225 0.275 0.299 c 0.113 0.07 0.258 0.105 0.434 0.105 c 0.144 0 0.268 -0.025 0.369 -0.076 c 0.101 -0.055 0.182 -0.125 0.244 -0.211 c 0.062 -0.086 0.107 -0.186 0.135 -0.299 c 0.031 -0.113 0.047 -0.231 0.047 -0.355 c 0 -0.312 -0.071 -0.543 -0.211 -0.691 c -0.137 -0.148 -0.338 -0.223 -0.607 -0.223 z" style="fill:#353535;fill-opacity:1"/>
</svg>
